X: 1
M: 3/4
L: 1/8
K: D
A,2 \
| "D"DC DE FG | A2 FA d2 | "G"B2 GB (3dcB | "D"A2 DF F2 \
| F2 EF GE | FD CD EF | "A7"A,B, CD EC | "D"D4 z2 :|
|: FG \
| "D"A2 BA GF | A2 BA GF | "G"G2 B2 d2 | d3 dcB \
| "D"A2 BA GF | "A7" F2 E2 E2 | EG FE DE | "D"F3 DFG |
| "D"A2 BA GF | A2 BA GF | "G"G2 B2 d2 | d3 dcB \
| "D"A2 BA GF | A2 BA GF | "A7"F2 ED CE | "D"D4 :|
P: Bj\orkedalsvals (A)
K: A
E2 \
| "A"AG AB cd | e2 ce a2 | "D"f2 df (3agf | "A"e2 Ac c2 \
| c2 Bc dB | cA GA Bc | "E7"EF GA BG | "A"A4 z2 :|
|: cd \
| "A"e2 fe dc | e2 fe dc | "D"d2 f2 a2 | a3 agf \
| "A"e2 fe dc | "E7" c2 B2 B2 | Bd cB AB | "A"c3 Acd |
| "A"e2 fe dc | e2 fe dc | "D"d2 f2 a2 | a3 agf \
| "A"e2 fe dc | e2 fe dc | "E7"c2 BA GB | "A"A4 :|
